X:86
T:The Sligo Maid
O:Ireland
R:reel
M:4/4
K:G
G | A2 BA Bdef | gedB AGEF |  ((3GFG) BG dGBG | DEGA BAdB |
A2 BA Bdef | gedB AGEG | B3 G A2 GE | DEGA BA A :|
g | eaag a2 ga | bgaf gfed | eggf g2 ge | dega bgag |
eaag a2 ga | bgaf gfed | eggf edBc | dBgB BA A :|
